X: 1018
T: Long John's Wedding
N:"Collected by F.O'Neill"
B:O'Neill's 1018
Z:Transcribed by Dan G. Petersen, dangp@post6.tele.dk
M:6/8
L:1/8
K:A
e|c2A ABA|agf e2d|c2A ABc|d2c Bcd|
c2A ABA|agf e2d|c2A BGB|A3 A2:|
e|A2B c2d|efe e3|d2B Bcd|e2d cBA|
f2g agf|e2d c2a|c2A BGB|A3 A2:|


